icons/parcel.svg

<!--
  - The MIT License (MIT)
  -
  - Copyright (c) 2015-2024 Elior "Mallowigi" Boukhobza
  -
  - Permission is hereby granted, free of charge, to any person obtaining a copy
  - of this software and associated documentation files (the "Software"), to deal
  - in the Software without restriction, including without limitation the rights
  - to use, copy, modify, merge, publish, distribute, sublicense, and/or sell
  - copies of the Software, and to permit persons to whom the Software is
  - furnished to do so, subject to the following conditions:
  -
  - The above copyright notice and this permission notice shall be included in all
  - copies or substantial portions of the Software.
  -
  - THE SOFTWARE IS PROVIDED "AS IS", WITHOUT WARRANTY OF ANY KIND, EXPRESS OR
  - IMPLIED, INCLUDING BUT NOT LIMITED TO THE WARRANTIES OF MERCHANTABILITY,
  - FITNESS FOR A PARTICULAR PURPOSE AND NONINFRINGEMENT. IN NO EVENT SHALL THE
  - AUTHORS OR COPYRIGHT HOLDERS BE LIABLE FOR ANY CLAIM, DAMAGES OR OTHER
  - LIABILITY, WHETHER IN AN ACTION OF CONTRACT, TORT OR OTHERWISE, ARISING FROM,
  - OUT OF OR IN CONNECTION WITH THE SOFTWARE OR THE USE OR OTHER DEALINGS IN THE
  - SOFTWARE.
  -
  -->

<svg  xmlns="http://www.w3.org/2000/svg" viewBox="0 0 24 24" width="16px" height="16px">
  <path fill="#ffa726" data-iconColor="Parcel"
        d="m11.7 2-8.8 2.8c-.4.1-.9.4-.9.9v12.3c0 .3.2.8.6.9l9.4 3.1 9.4-3.1c.4-.1.6-.6.6-.9v-12.3c0-.5-.5-.8-.9-.9l-8.8-2.8h-.3h-.1zm-8.2 6 7.7 2.5v9.5l-7.7-2.5zm17 0v9.5l-7.7 2.5v-9.5l2.9-.9v4.5c0 .4.3.7.8.5c.4-.1.8-.6.8-1v-4.6z"/>
</svg>

<svg xmlns="http://www.w3.org/2000/svg" viewBox="0 0 24 24"><path fill="#ffa726" d="M11.7 2 2.9 4.8c-.4.1-.9.4-.9.9V18c0 .3.2.8.6.9L12 22l9.4-3.1c.4-.1.6-.6.6-.9V5.7c0-.5-.5-.8-.9-.9L12.3 2h-.4zM3.5 8l7.7 2.5V20l-7.7-2.5zm17 0v9.5L12.8 20v-9.5l2.9-.9v4.5c0 .4.3.7.8.5.4-.1.8-.6.8-1V9z" data-iconColor="Parcel"/></svg>
